X: 35508
T: Ruffle The Old Hag In The Corner
R: slip jig
M: 9/8
K: Dmixolydian
|:B|AGE EDD D2 d|AGF E2 F G2 E|AGE EDD D2 d|e2 E E2 F G2:|
|:E|ded dc/B/A AGE|BcB d2 e f2 e|df/e/d dc/B/A AGF|E2 e e2 F G2:|

